!!key: tele-40-4-Fan-All-2-Flute
!!!COM: Telemann, Georg Philipp
!!!CDT: 1681/03/14-1767/06/25
!!!CBL: Magdeburg
!!!CDL: Hamburg
!!!CNT: German
!!!TWV: 40:4
!!!TWV-genre: 40
!!!TWV-work: 4
!!!OPR: 12 Fantasias for transverse flute without bass
!!!OTL: Fantasia 3
!!!OMD: Allegro
!!!OMV: 2
!!!ODT: ca. 1732–1733
!!!AST: Late Baroque
!!!AGN: Fantasia
!!!AMT: Compound duple
!!!AIN: Transverse flute
**kern
*ICww
*Iflt
*clefG2
*k[f#c#]
*b:
*M6/8
8ff#
=1
8ff#L
8ee
8ff#J
8ddL
8cc#
8ddJ
=2
8bL
8a#X
8bJ
8f#L
8b
8ddJ
=3
8eL
8cc#
8eeJ
8f#L
8dd
8cc#J
=4
8ddL
8ee
8cc#J
4b
8ff#
=5
4e
8gg
4d
8ff#
!!LO:LB:g=original
=6
8aL
8ee
8ddJ
8cc#L
8dd
8eeJ
=7
4f#
8aa
4e
8gg
=8
8dL
8ff#
8eeJ
8ff#L
8gg
8aaJ
=9
4g
8bb
8eeL
8gg
8bbJ
=10
4f#
8aa
8ddL
8ff#
8aaJ
!!LO:LB:g=original
=11
4e
8gg
8cc#L
8ee
8ggJ
=12
8dL
8a
8ff#J
8f#L
8a
8ddJ
=13
8gL
8b
8eeJ
8aL
8dd
8cc#J
=14
8d
[4cc#
4cc#]
8dd
=15
8g
[4cc#
4cc#]
8dd
!!LO:LB:g=original
=16
8f#
[4cc#
4cc#]
8dd
=17
8bL
8dd
8ggJ
8aL
8gg
8ff#J
=18
8gL
8b
8eeJ
8g#XL
8ee
8ddJ
=19
8aL
8cc#
8eeJ
8gnL
8ee
8gJ
=20
4f#
8aa
8bL
8cc#
8ddJ
!!LO:LB:g=original
=21
8gL
8cc#
8ddJ
8aL
8dd
8cc#J
=22
4.d
8r
8r
=:||:
8aa
=23
8aaL
8gg
8aaJ
8ff#L
8ee
8ff#J
=24
8ddL
8cc#
8ddJ
8aL
8dd
8ff#J
=25
8gL
8ee
8ggJ
8aL
8ff#
8eeJ
!!LO:LB:g=original
=26
8ff#L
8gg
8eeJ
4dd
8ff#
=27
8g#XL
8b
8eeJ
4e
8dd
=28
8cc#L
8dd
8bJ
4a
8b
=29
8a#XL
8cc#
8ff#J
4f#
8cc#
=30
8ddL
8ee
8cc#J
4b
8ff#
!!LO:LB:g=original
=31
8gL
8b
8eeJ
8f#L
8a
8ddJ
=32
4e
8cc#
4g
8b
=33
8f#L
8a#X
8cc#J
4f#
8e
=34
8dL
8cc#
8bJ
8f#L
8b
8a#XJ
=35
8b
[4aa#X
4aa#]
8bb
!!LO:LB:g=original
=36
8ee
[4aa#X
4aa#]
8bb
=37
8dd
[4aa#X
4aa#]
8bb
=38
8ccnL
8ee
8ggJ
8bL
8ee
8ggJ
=39
8a#XL
8gg
8ff#J
8bL
8dd
8ff#J
=40
8eL
8cc#
8bJ
4f#
8aa#X
=41
4.b
8r
8r
==:|
*-
!!!RTL1: G. PH. Telemann: Twelve Fantasias for Flute without Bass TWV 40:2-13
!!!RPN1: D'Arcangelo, Rita
!!!RMM1: Da Vinci Classics
!!!RC#1: DV-C00440
!!!RRD1: 2022
!!!RLC1: Andreaskirche, Berlin, Germany
!!!RDT1: 16 September 2020, 17 September 2020
!!!RT#1: 3
!!!RTL2: The Telemann Files: 12 Fantasies for Solo Flute
!!!RPN2: Choi, Jasmine
!!!RMM2: Austrian Gramophone
!!!RC#2: AG0001
!!!RRD2: February 2015
!!!RLC2: LeFrak Hall, Queens, USA
!!!RDT2: 9 June 2014, 10 June 2014
!!!RT#2: 3
!!!RTL3: Georg Philipp Telemann: Twelve Fantasies for Flute
!!!RPN3: Robertello, Thomas
!!!RMM3: Delos
!!!RC#3: DE3396
!!!RRD3: 1 June 2009
!!!RLC3: Clear Creek Recording, Keene, California
!!!RDT3: Unknown
!!!RT#3: 3
